X:1
T:Risen for Me
T:James Henry Fillmore, Sr.
T:Risen for Me
T:Public Domain
T:Public Domain
C:James Henry Fillmore, Sr.
Z:Public Domain
%%score 1 ( 2 3 )
L:1/8
M:3/4
K:C
V:1 treble 
V:2 bass 
V:3 bass 
V:1
 [EG]>[EG] | [EG]2 [CE]2 [EG]2 | [Ec]4 [Ec]>[Gc] | [Ac]2 [GB]2 [FA]2 | [EG]4 [EG]>[EG] | %5
w: 1.~There’s a|song on my|lips, There’s a|song in my|soul, Tho’ the|
w: 2.~There’s a|light in my|sky, Since the|break- ing of|day, When the|
w: 3.~There is|joy in my|heart All the|long, wea- ry|day, For the|
 [FA]2 [EG]2 [CE]2 | [FA]2 [EG]2 [CE]2 | [CE]2 [B,D]2 [A,C]2 | [B,D]4 [FG]>[FG] | %9
w: waves of dis-|tress Deep- ly|round me may|roll; For I|
w: seal rent in|twain And the|stone rolled a-|way; For an|
w: storm o- ver-|past And the|clouds rolled a-|way; There’s a|
 [EG]2 [CE]2 [EG]2 | [Ec]4 [Ge]>[Ge] | [Fd]2 [Ac]2 [FA]2 | [Ac]4 [GB][FA] | [EG]2 [CE]2 [DF]2 | %14
w: know whom I|trust, Tho’ the|way may be|dim, I shall|safe- ly go|
w: an- gel spoke|peace To my|spir- it’s a-|larm: He is|ris- en for|
w: rose for each|thorn, And a|gain for each|loss, Since my|Sav- ior Him-|
 [EG]4 [Ec]>[Ec] | [DB]2 [Ec]2 [Fd]2 | [Ec]4 ||"^Refrain" [Ec]>[Fd] | [Ge]2 [Ec]2 [^DA]2 | %19
w: home, If I|cling close to|Him.|||
w: thee; There is|no- thing to|harm.|I will|not be a-|
w: self Gained a|crown by the|cross.|||
 [EG]4 [Ec]>[Fd] | [Ge]2 [Ec]2 [^DA]2 | [EG]4 [EA][EB] | [Ec]2 [Ec]2 [EB]2 | [Ec]2 [Ec]2 [^Fd]2 | %24
w: |||||
w: fraid When the|dark grave I|see, For my|Sav- ior has|died And has|
w: |||||
 [Ge]2 [Ec]2 [Fd]2 | [Ec]8 |] %26
w: ||
w: ris- en for|me.|
w: ||
V:2
 z2 | z2 G,2 C2 | z2 G,2 C2 | z2 A,2 C2 | z2 G,2 C2 | z2 G,2 G,2 | z2 G,2 G,2 | %7
 z2 [D,^F,]2 [D,F,]2 | z2 G,2 G,2 | z2 G,2 C2 | z2 G,2 C2 | z2 A,2 C2 | z2 A,2 C2 | z2 G,2 G,2 | %14
 z2 G,2 G,2 | z2 G,2 [G,B,]2 | [C,G,]4 || [C,G,]>[C,G,] | [C,C]2 [C,G,]2 [C,^F,]2 | %19
 [C,G,]4 [C,G,]>[C,G,] | [C,C]2 [C,G,]2 [C,^F,]2 | [C,G,]4 [CE][B,D] | [A,C]2 A,2 [E,^G,]2 | %23
 A,2 [=A,C]2 [_A,C]2 | [G,C]2 G,2 [G,,G,]2 | [C,G,]8 |] %26
V:3
 x2 | C,6 | C,6 | [F,,F,]6 | C,6 | C,6 | C,6 | A,,6 | G,,6 | C,6 | C,6 | F,6 | F,6 | C,6 | C,6 | %15
 G,,6 | x4 || x2 | x6 | x6 | x6 | x6 | x2 A,2 x2 | _A,2 x4 | x2 G,2 x2 | x8 |] %26

